icons/glyphs/glyph-pineapple.svg

<?xml version="1.0" encoding="UTF-8" standalone="no"?><svg height="16" viewBox="0 0 4.2333332 4.2333332" width="16" xmlns="http://www.w3.org/2000/svg"><sodipodi:namedview/><metadata><rdf:RDF><cc:Work><dc:format>image/svg+xml</dc:format><dc:type/><dc:title/></cc:Work></rdf:RDF></metadata><path d="m2.1112716-.0000001s-.1909612.31833441-.2044645.71805364c-.1099933-.16650976-.276148-.3285288-.5303131-.42241624.164267.16947963.2906835.40162922.3355592.66896056-.1376285-.07593036-.3053399-.13693453-.5027993-.14188438-.081064-.00203573-.1667711.00511543-.25679445.0242768.31097865.0752781.57693535.32266622.75365945.67705282-.4077978.2064501-.6774667.7273233-.6775923 1.3087889-.0000276.7736216.2747694 1.4005013 1.0509154 1.4005013.9198399 0 1.0504037-.6271606 1.0503761-1.4005013-.000361-.551134-.243196-1.0507407-.620407-1.2764198.1765417-.3725769.4506723-.63176878.7714626-.7094219-.3103344-.06603755-.565248.01154071-.759594.11922602.044478-.2679954.1704311-.50076767.3350197-.67057902-.2615121.09660142-.4303324.26486938-.5400237.43644282-.0093341-.40637865-.2050041-.73208022-.2050041-.73208022z" fill="#d0d0d0"/></svg>

<?xml version="1.0" encoding="UTF-8" standalone="no"?>
<!-- Created with Inkscape (http://www.inkscape.org/) -->

<svg
   xmlns:dc="http://purl.org/dc/elements/1.1/"
   xmlns:cc="http://creativecommons.org/ns#"
   xmlns:rdf="http://www.w3.org/1999/02/22-rdf-syntax-ns#"
   xmlns:svg="http://www.w3.org/2000/svg"
   xmlns="http://www.w3.org/2000/svg"
   xmlns:sodipodi="http://sodipodi.sourceforge.net/DTD/sodipodi-0.dtd"
   xmlns:inkscape="http://www.inkscape.org/namespaces/inkscape"
   width="16"
   height="16"
   viewBox="0 0 4.2333332 4.2333332"
   version="1.1"
   id="svg8"
   inkscape:version="0.92+devel (d0390b9f4f, 2017-07-31, custom)"
   sodipodi:docname="glyph-pineapple.svg">
  <defs
     id="defs2" />
  <sodipodi:namedview
     id="base"
     pagecolor="#002466"
     bordercolor="#ffffff"
     borderopacity="0.38039216"
     inkscape:pageopacity="1"
     inkscape:pageshadow="2"
     inkscape:zoom="36.415999"
     inkscape:cx="10.094581"
     inkscape:cy="7.9162778"
     inkscape:document-units="px"
     inkscape:current-layer="svg8"
     inkscape:document-rotation="0"
     showgrid="false"
     inkscape:showpageshadow="false"
     borderlayer="true"
     inkscape:window-width="1920"
     inkscape:window-height="1051"
     inkscape:window-x="0"
     inkscape:window-y="0"
     inkscape:window-maximized="1"
     units="px" />
  <metadata
     id="metadata5">
    <rdf:RDF>
      <cc:Work
         rdf:about="">
        <dc:format>image/svg+xml</dc:format>
        <dc:type
           rdf:resource="http://purl.org/dc/dcmitype/StillImage" />
        <dc:title></dc:title>
      </cc:Work>
    </rdf:RDF>
  </metadata>
  <path
     style="fill:#d0d0d0;stroke:none;stroke-width:0.26458332px;stroke-linecap:butt;stroke-linejoin:miter;stroke-opacity:1"
     d="m 2.1112716,-1e-7 c 0,0 -0.1909612,0.31833441 -0.2044645,0.71805364 C 1.7968138,0.55154378 1.6306591,0.38952474 1.376494,0.2956373 1.540761,0.46511693 1.6671775,0.69726652 1.7120532,0.96459786 1.5744247,0.8886675 1.4067133,0.82766333 1.2092539,0.82271348 1.1281899,0.82067775 1.0424828,0.82782891 0.95245945,0.84699028 1.2634381,0.92226838 1.5293948,1.1696565 1.7061189,1.5240431 1.2983211,1.7304932 1.0286522,2.2513664 1.0285266,2.832832 1.028499,3.6064536 1.303296,4.2333333 2.079442,4.2333333 c 0.9198399,0 1.0504037,-0.6271606 1.0503761,-1.4005013 C 3.1294571,2.281698 2.8866221,1.7820913 2.5094111,1.5564122 2.6859528,1.1838353 2.9600834,0.92464342 3.2808737,0.8469903 2.9705393,0.78095275 2.7156257,0.85853101 2.5212797,0.96621632 2.5657577,0.69822092 2.6917108,0.46544865 2.8562994,0.2956373 2.5947873,0.39223872 2.425967,0.56050668 2.3162757,0.73208012 2.3069416,0.32570147 2.1112716,-1e-7 2.1112716,-1e-7 Z"
     id="path815"
     inkscape:connector-curvature="0"
     sodipodi:nodetypes="cccccccccccccccc"
     inkscape:label="#" />
</svg>
